svgs/sharp-regular/h5.svg

<svg xmlns="http://www.w3.org/2000/svg" viewBox="0 0 640 512"><!--! Font Awesome Pro 6.6.0 by @fontawesome - https://fontawesome.com License - https://fontawesome.com/license (Commercial License) Copyright 2024 Fonticons, Inc. --><path d="M48 88l0-24L0 64 0 88 0 248 0 424l0 24 48 0 0-24 0-152 224 0 0 152 0 24 48 0 0-24 0-176 0-160 0-24-48 0 0 24 0 136L48 224 48 88zM440 64l-20.7 0-3.1 20.4-24 160L388.1 272l27.9 0 112 0c35.3 0 64 28.7 64 64s-28.7 64-64 64l-61.8 0c-14.3 0-26.8-9.5-30.8-23.2l-4.4-15.4-46.2 13.2 4.4 15.4c9.8 34.3 41.2 58 76.9 58l61.8 0c61.9 0 112-50.1 112-112s-50.1-112-112-112l-84.1 0 16.8-112L584 112l24 0 0-48-24 0L440 64z"/></svg>

<svg xmlns="http://www.w3.org/2000/svg" viewBox="0 0 640 512"><!--! Font Awesome Pro 6.5.2 by @fontawesome - https://fontawesome.com License - https://fontawesome.com/license (Commercial License) Copyright 2024 Fonticons, Inc. --><path d="M48 88V64H0V88 248 424v24H48V424 272H272V424v24h48V424 248 88 64H272V88 224H48V88zM440 64H419.3l-3.1 20.4-24 160L388.1 272H416 528c35.3 0 64 28.7 64 64s-28.7 64-64 64H466.2c-14.3 0-26.8-9.5-30.8-23.2l-4.4-15.4-46.2 13.2 4.4 15.4c9.8 34.3 41.2 58 76.9 58H528c61.9 0 112-50.1 112-112s-50.1-112-112-112H443.9l16.8-112H584h24V64H584 440z"/></svg>
